goldstone/static/images/metrize/button-add.svg

<svg xmlns="http://www.w3.org/2000/svg" xmlns:xlink="http://www.w3.org/1999/xlink" version="1.1" id="Layer_1" x="0px" y="0px" width="512px" height="512px" viewBox="0 0 512 512" enable-background="new 0 0 512 512" xml:space="preserve" xmlns:xml="http://www.w3.org/XML/1998/namespace">
<path d="m 256 0 c -141.391 0 -256 114.609 -256 256 s 114.609 256 256 256 s 256 -114.609 256 -256 s -114.609 -256 -256 -256 z m 0 472 c -119.297 0 -216 -96.703 -216 -216 s 96.703 -216 216 -216 s 216 96.703 216 216 s -96.703 216 -216 216 z"/>
<path fill-rule="evenodd" clip-rule="evenodd" d="m 256 128 c -70.695 0 -128 57.312 -128 128 s 57.305 128 128 128 c 70.688 0 128 -57.312 128 -128 s -57.312 -128 -128 -128 z m 64 144 h -48 v 48 h -32 v -48 h -48 v -32 h 48 v -48 h 32 v 48 h 48 v 32 z"/>
</svg>

<?xml version="1.0" encoding="utf-8"?>
<!-- Generator: Adobe Illustrator 16.2.1, SVG Export Plug-In . SVG Version: 6.00 Build 0)  -->
<!DOCTYPE svg PUBLIC "-//W3C//DTD SVG 1.1//EN" "http://www.w3.org/Graphics/SVG/1.1/DTD/svg11.dtd">
<svg version="1.1" id="Layer_1" xmlns="http://www.w3.org/2000/svg" xmlns:xlink="http://www.w3.org/1999/xlink" x="0px" y="0px"
	 width="512px" height="512px" viewBox="0 0 512 512" enable-background="new 0 0 512 512" xml:space="preserve">
<path d="M256,0C114.609,0,0,114.609,0,256s114.609,256,256,256s256-114.609,256-256S397.391,0,256,0z M256,472
	c-119.297,0-216-96.703-216-216S136.703,40,256,40s216,96.703,216,216S375.297,472,256,472z"/>
<path fill-rule="evenodd" clip-rule="evenodd" d="M256,128c-70.695,0-128,57.312-128,128s57.305,128,128,128
	c70.688,0,128-57.312,128-128S326.688,128,256,128z M320,272h-48v48h-32v-48h-48v-32h48v-48h32v48h48V272z"/>
</svg>
